Origami/64x64/apps/franz.svg

<svg width="64" height="64" version="1" xmlns="http://www.w3.org/2000/svg">
 <path d="m4.050798 31.000828c-0.0118 0.33399-0.050799 0.661981-0.050799 0.999971 0 15.511558 12.487644 27.999201 27.999201 27.999201s27.999201-12.487643 27.999201-27.999201c0-0.33767-0.03904-0.665261-0.05078-0.999971-0.527984 15.041571-12.775634 26.999229-27.949201 26.999229-15.173967 0-27.421217-11.957658-27.949202-26.999229z" style="opacity:.2"/>
 <rect transform="matrix(0,-1,-1,0,0,0)" x="-59" y="-60" width="55.998" height="55.998" rx="27.999" ry="27.999" style="fill:#0286c2"/>
 <path d="M 32 3 C 16.488443 3 4 15.488442 4 31 C 4 31.113552 4.0112846 31.224036 4.0175781 31.335938 C 4.3691113 16.134614 16.711164 4 32 4 C 47.288836 4 59.630889 16.134614 59.982422 31.335938 C 59.988693 31.224116 60 31.113445 60 31 C 60 15.488442 47.511557 3 32 3 z" style="fill:#ffffff;opacity:.1"/>
 <path d="m14.224609 17.002164c-0.173693-0.0207-0.362893 0.0955-0.585937 0.3125-0.364843 0.354976-0.445913 1.283931-0.5625 6.375-0.07516 3.277757-0.09883 6.043008-0.05078 6.146485 0.269959 0.582408 3.343358-0.49536 4.43164-1.554688l0.542968-0.53125-0.669922-1.109375c-0.434881-0.721382-0.930046-2.333005-1.414062-4.595703-0.784858-3.667619-1.170324-4.981079-1.691407-5.042969zm35.550782 0c-0.521083 0.06189-0.906549 1.37535-1.691407 5.042969-0.484016 2.262698-0.979181 3.874321-1.414062 4.595703l-0.669922 1.109375 0.542969 0.53125c1.088282 1.059328 4.161681 2.137096 4.43164 1.554688 0.04805-0.103477 0.02438-2.868728-0.05078-6.146485-0.116587-5.091069-0.197657-6.020024-0.5625-6.375-0.223044-0.217-0.412244-0.3332-0.585937-0.3125zm-23.589844 6.998047c-0.451145 0.0017-0.826564 0.114956-1.205078 0.328125-0.448187 0.252392-2.112464 1.835337-3.699219 3.515625-2.411931 2.554135-3.117028 3.146786-4.308594 3.632812-1.875246 0.764821-3.455943 1.05237-4.753906 0.65625-1.76191-0.537728-2.7145702 0.364193-1.957031 1.960938 0.722279 1.522539 3.61161 2.902854 7.4375 3.554688 5.311449 0.905028 8.829206 0.36992 12.5625-2.691407 0.715679-0.58683 1.507086-1.070312 1.761719-1.070312 0.254632 0 1.12429 0.54317 1.929687 1.203125 1.912866 1.567442 2.845546 1.765476 5.113281 2.445312 1.613954 0.483886 2.242384 0.539099 4.511719 0.394532 4.771464-0.303976 7.963579-1.33005 9.644531-3.101563 0.565984-0.596031 0.777344-1.053795 0.777344-1.673828 0-1.241865-0.658992-1.357533-2.339844-0.917969-1.020651 0.266913-1.589856 0.07864-2.617187-0.15625-2.515928-0.57603-3.654021-1.366097-6.585938-4.572266-2.277935-2.49013-3.217067-3.451997-4.457031-3.5-0.743879-0.0279-1.595514 0.274837-2.910156 0.777344-1.39424 0.532967-2.82851 1.214924-3.1875 1.214844-0.35899-9.2e-5 -1.46606-0.598221-2.457032-1.027344-1.54458-0.66881-2.507857-0.975513-3.259765-0.972656zm-11.933594 16c-0.132152-0.0039-0.214322 0.0029-0.232422 0.02344-0.07248 0.08254 0.0636 0.854181 0.300781 1.710937 0.519546 1.876706 1.63211 3.329896 2.957032 3.863281 1.318543 0.530764 4.829481 0.537603 5.722656 0.01172 0.71398-0.419988 1-1.297988 1-3.085937 0-1.76195-0.05538-1.798829-2.779297-1.798829-1.363361-2e-3 -3.512827-0.189882-4.775391-0.421875-0.947072-0.175495-1.796901-0.290922-2.193359-0.302734zm35.431641 0.0039c-0.08992 0.0086-0.205374 0.03473-0.351563 0.07422-1.777189 0.479998-3.62256 0.741871-6.304687 0.894531l-2.933594 0.167969-0.07031 1.777344c-0.06509 1.598975-0.0113 1.839356 0.539062 2.43164 0.566671 0.609802 0.776058 0.659237 2.882812 0.648438 2.367266-0.012 3.777466-0.381311 4.648438-1.214844 0.642124-0.613917 1.906248-3.441772 1.906248-4.263667 1.24e-4 -0.408407-0.04667-0.541481-0.316406-0.515625z" style="opacity:.2"/>
 <path d="m14.224609 16.001953c-0.173693-0.0207-0.362893 0.0955-0.585937 0.3125-0.364843 0.354976-0.445913 1.283931-0.5625 6.375-0.07516 3.277757-0.098831 6.043008-0.050781 6.146485 0.269959 0.582408 3.343358-0.49536 4.43164-1.554688l0.542969-0.53125-0.669922-1.109375c-0.434881-0.721382-0.930046-2.333005-1.414062-4.595703-0.784858-3.667619-1.170324-4.981079-1.691407-5.042969zm35.550782 0c-0.521083 0.06189-0.906549 1.37535-1.691407 5.042969-0.484016 2.262698-0.979181 3.874321-1.414062 4.595703l-0.669922 1.109375 0.542969 0.53125c1.088282 1.059328 4.161681 2.137096 4.43164 1.554688 0.04805-0.103477 0.024379-2.868728-0.050781-6.146485-0.116587-5.091069-0.197657-6.020024-0.5625-6.375-0.223044-0.217-0.412244-0.3332-0.585937-0.3125zm-23.589844 6.998047c-0.451145 0.001714-0.826564 0.114956-1.205078 0.328125-0.448187 0.252392-2.112464 1.835337-3.699219 3.515625-2.411931 2.554135-3.117028 3.146786-4.308594 3.632812-1.875246 0.764821-3.455943 1.05237-4.753906 0.65625-1.76191-0.537728-2.7145702 0.364193-1.957031 1.960938 0.722279 1.522539 3.61161 2.902854 7.4375 3.554688 5.311449 0.905028 8.829206 0.36992 12.5625-2.691407 0.715679-0.58683 1.507086-1.070312 1.761719-1.070312 0.254632 0 1.12429 0.54317 1.929687 1.203125 1.912866 1.567442 2.845546 1.765476 5.113281 2.445312 1.613954 0.483886 2.242384 0.539099 4.511719 0.394532 4.771464-0.303976 7.963579-1.33005 9.644531-3.101563 0.565984-0.596031 0.777344-1.053795 0.777344-1.673828 0-1.241865-0.658992-1.357533-2.339844-0.917969-1.020651 0.266913-1.589856 0.07864-2.617187-0.15625-2.515928-0.57603-3.654021-1.366097-6.585938-4.572266-2.277935-2.49013-3.217067-3.451997-4.457031-3.5-0.743879-0.027899-1.595514 0.274837-2.910156 0.777344-1.39424 0.532967-2.82851 1.214924-3.1875 1.214844-0.35899-9.2e-5 -1.46606-0.598221-2.457032-1.027344-1.54458-0.66881-2.507857-0.975513-3.259765-0.972656zm-11.933594 16c-0.132152-0.003937-0.214322 0.002938-0.232422 0.023438-0.07248 0.08254 0.063599 0.854181 0.300781 1.710937 0.519546 1.876706 1.63211 3.329896 2.957032 3.863281 1.318543 0.530764 4.829481 0.537603 5.722656 0.011719 0.71398-0.419988 1-1.297988 1-3.085937 0-1.76195-0.055377-1.798829-2.779297-1.798829-1.363361-2e-3 -3.512827-0.189882-4.775391-0.421875-0.947072-0.175495-1.796901-0.290922-2.193359-0.302734zm35.431641 0.003906c-0.08992 0.0086-0.205374 0.034729-0.351563 0.074219-1.777189 0.479998-3.62256 0.741871-6.304687 0.894531l-2.933594 0.167969-0.070312 1.777344c-0.06509 1.598975-0.011304 1.839356 0.539062 2.43164 0.566671 0.609802 0.776058 0.659237 2.882812 0.648438 2.367266-0.012 3.777466-0.381311 4.648438-1.214844 0.642126-0.613922 1.90625-3.441777 1.90625-4.263672 1.24e-4 -0.408407-0.046674-0.541481-0.316406-0.515625z" style="fill:#ffffff"/>
</svg>

<svg xmlns="http://www.w3.org/2000/svg" width="64" height="64" version="1">
 <path style="opacity:0.2" d="m 4.050798,31.000828 c -0.0118,0.33399 -0.050799,0.661981 -0.050799,0.999971 C 3.999999,47.512357 16.487643,60 31.9992,60 47.510757,60 59.998401,47.512357 59.998401,32.000799 c 0,-0.33767 -0.03904,-0.665261 -0.05078,-0.999971 -0.527984,15.041571 -12.775634,26.999229 -27.949201,26.999229 -15.173967,0 -27.4212171,-11.957658 -27.949202,-26.999229 z"/>
 <rect style="fill:#0286c2" width="55.998" height="55.998" x="-59" y="-60" rx="27.999" ry="27.999" transform="matrix(0,-1,-1,0,0,0)"/>
 <path style="opacity:0.1;fill:#ffffff" d="M 32 3 C 16.488443 3 4 15.488442 4 31 C 4 31.113552 4.0112846 31.224036 4.0175781 31.335938 C 4.3691113 16.134614 16.711164 4 32 4 C 47.288836 4 59.630889 16.134614 59.982422 31.335938 C 59.988693 31.224116 60 31.113445 60 31 C 60 15.488442 47.511557 3 32 3 z"/>
 <path style="opacity:0.2" d="m 14.224609,17.002164 c -0.173693,-0.0207 -0.362893,0.0955 -0.585937,0.3125 -0.364843,0.354976 -0.445913,1.283931 -0.5625,6.375 -0.07516,3.277757 -0.09883,6.043008 -0.05078,6.146485 0.269959,0.582408 3.343358,-0.49536 4.43164,-1.554688 L 18,27.750211 17.330078,26.640836 c -0.434881,-0.721382 -0.930046,-2.333005 -1.414062,-4.595703 -0.784858,-3.667619 -1.170324,-4.981079 -1.691407,-5.042969 z m 35.550782,0 c -0.521083,0.06189 -0.906549,1.37535 -1.691407,5.042969 -0.484016,2.262698 -0.979181,3.874321 -1.414062,4.595703 L 46,27.750211 l 0.542969,0.53125 c 1.088282,1.059328 4.161681,2.137096 4.43164,1.554688 0.04805,-0.103477 0.02438,-2.868728 -0.05078,-6.146485 -0.116587,-5.091069 -0.197657,-6.020024 -0.5625,-6.375 -0.223044,-0.217 -0.412244,-0.3332 -0.585937,-0.3125 z m -23.589844,6.998047 c -0.451145,0.0017 -0.826564,0.114956 -1.205078,0.328125 -0.448187,0.252392 -2.112464,1.835337 -3.699219,3.515625 -2.411931,2.554135 -3.117028,3.146786 -4.308594,3.632812 -1.875246,0.764821 -3.455943,1.05237 -4.753906,0.65625 -1.76191,-0.537728 -2.7145702,0.364193 -1.957031,1.960938 0.722279,1.522539 3.61161,2.902854 7.4375,3.554688 5.311449,0.905028 8.829206,0.36992 12.5625,-2.691407 0.715679,-0.58683 1.507086,-1.070312 1.761719,-1.070312 0.254632,0 1.12429,0.54317 1.929687,1.203125 1.912866,1.567442 2.845546,1.765476 5.113281,2.445312 1.613954,0.483886 2.242384,0.539099 4.511719,0.394532 4.771464,-0.303976 7.963579,-1.33005 9.644531,-3.101563 C 53.78864,34.232305 54,33.774541 54,33.154508 c 0,-1.241865 -0.658992,-1.357533 -2.339844,-0.917969 -1.020651,0.266913 -1.589856,0.07864 -2.617187,-0.15625 -2.515928,-0.57603 -3.654021,-1.366097 -6.585938,-4.572266 -2.277935,-2.49013 -3.217067,-3.451997 -4.457031,-3.5 -0.743879,-0.0279 -1.595514,0.274837 -2.910156,0.777344 -1.39424,0.532967 -2.82851,1.214924 -3.1875,1.214844 -0.35899,-9.2e-5 -1.46606,-0.598221 -2.457032,-1.027344 -1.54458,-0.66881 -2.507857,-0.975513 -3.259765,-0.972656 z m -11.933594,16 c -0.132152,-0.0039 -0.214322,0.0029 -0.232422,0.02344 -0.07248,0.08254 0.0636,0.854181 0.300781,1.710937 0.519546,1.876706 1.63211,3.329896 2.957032,3.863281 1.318543,0.530764 4.829481,0.537603 5.722656,0.01172 0.71398,-0.419988 1,-1.297988 1,-3.085937 0,-1.76195 -0.05538,-1.798829 -2.779297,-1.798829 -1.363361,-0.002 -3.512827,-0.189882 -4.775391,-0.421875 -0.947072,-0.175495 -1.796901,-0.290922 -2.193359,-0.302734 z m 35.431641,0.0039 c -0.08992,0.0086 -0.205374,0.03473 -0.351563,0.07422 -1.777189,0.479998 -3.62256,0.741871 -6.304687,0.894531 l -2.933594,0.167969 -0.07031,1.777344 c -0.06509,1.598975 -0.0113,1.839356 0.539062,2.43164 0.566671,0.609802 0.776058,0.659237 2.882812,0.648438 2.367266,-0.012 3.777466,-0.381311 4.648438,-1.214844 C 48.735876,44.169492 50,41.341637 50,40.519742 c 1.24e-4,-0.408407 -0.04667,-0.541481 -0.316406,-0.515625 z"/>
 <path style="fill:#ffffff" d="M 14.224609 16.001953 C 14.050916 15.981253 13.861716 16.097453 13.638672 16.314453 C 13.273829 16.669429 13.192759 17.598384 13.076172 22.689453 C 13.001012 25.96721 12.977341 28.732461 13.025391 28.835938 C 13.29535 29.418346 16.368749 28.340578 17.457031 27.28125 L 18 26.75 L 17.330078 25.640625 C 16.895197 24.919243 16.400032 23.30762 15.916016 21.044922 C 15.131158 17.377303 14.745692 16.063843 14.224609 16.001953 z M 49.775391 16.001953 C 49.254308 16.063843 48.868842 17.377303 48.083984 21.044922 C 47.599968 23.30762 47.104803 24.919243 46.669922 25.640625 L 46 26.75 L 46.542969 27.28125 C 47.631251 28.340578 50.70465 29.418346 50.974609 28.835938 C 51.022659 28.732461 50.998988 25.96721 50.923828 22.689453 C 50.807241 17.598384 50.726171 16.669429 50.361328 16.314453 C 50.138284 16.097453 49.949084 15.981253 49.775391 16.001953 z M 26.185547 23 C 25.734402 23.001714 25.358983 23.114956 24.980469 23.328125 C 24.532282 23.580517 22.868005 25.163462 21.28125 26.84375 C 18.869319 29.397885 18.164222 29.990536 16.972656 30.476562 C 15.09741 31.241383 13.516713 31.528932 12.21875 31.132812 C 10.45684 30.595084 9.5041798 31.497005 10.261719 33.09375 C 10.983998 34.616289 13.873329 35.996604 17.699219 36.648438 C 23.010668 37.553466 26.528425 37.018358 30.261719 33.957031 C 30.977398 33.370201 31.768805 32.886719 32.023438 32.886719 C 32.27807 32.886719 33.147728 33.429889 33.953125 34.089844 C 35.865991 35.657286 36.798671 35.85532 39.066406 36.535156 C 40.68036 37.019042 41.30879 37.074255 43.578125 36.929688 C 48.349589 36.625712 51.541704 35.599638 53.222656 33.828125 C 53.78864 33.232094 54 32.77433 54 32.154297 C 54 30.912432 53.341008 30.796764 51.660156 31.236328 C 50.639505 31.503241 50.0703 31.314968 49.042969 31.080078 C 46.527041 30.504048 45.388948 29.713981 42.457031 26.507812 C 40.179096 24.017682 39.239964 23.055815 38 23.007812 C 37.256121 22.979913 36.404486 23.282649 35.089844 23.785156 C 33.695604 24.318123 32.261334 25.00008 31.902344 25 C 31.543354 24.999908 30.436284 24.401779 29.445312 23.972656 C 27.900732 23.303846 26.937455 22.997143 26.185547 23 z M 14.251953 39 C 14.119801 38.996063 14.037631 39.002938 14.019531 39.023438 C 13.947051 39.105978 14.08313 39.877619 14.320312 40.734375 C 14.839858 42.611081 15.952422 44.064271 17.277344 44.597656 C 18.595887 45.12842 22.106825 45.135259 23 44.609375 C 23.71398 44.189387 24 43.311387 24 41.523438 C 24 39.761488 23.944623 39.724609 21.220703 39.724609 C 19.857342 39.722609 17.707876 39.534727 16.445312 39.302734 C 15.49824 39.127239 14.648411 39.011812 14.251953 39 z M 49.683594 39.003906 C 49.593674 39.012506 49.47822 39.038635 49.332031 39.078125 C 47.554842 39.558123 45.709471 39.819996 43.027344 39.972656 L 40.09375 40.140625 L 40.023438 41.917969 C 39.958348 43.516944 40.012134 43.757325 40.5625 44.349609 C 41.129171 44.959411 41.338558 45.008846 43.445312 44.998047 C 45.812578 44.986047 47.222778 44.616736 48.09375 43.783203 C 48.735876 43.169281 50 40.341426 50 39.519531 C 50.000124 39.111124 49.953326 38.97805 49.683594 39.003906 z"/>
</svg>
